src/assets/outline/InfoCircle.svg

<svg width="24" height="24" viewBox="0 0 24 24"  xmlns="http://www.w3.org/2000/svg">
<path d="M12 22.75C6.07 22.75 1.25 17.93 1.25 12C1.25 6.07 6.07 1.25 12 1.25C17.93 1.25 22.75 6.07 22.75 12C22.75 17.93 17.93 22.75 12 22.75ZM12 2.75C6.9 2.75 2.75 6.9 2.75 12C2.75 17.1 6.9 21.25 12 21.25C17.1 21.25 21.25 17.1 21.25 12C21.25 6.9 17.1 2.75 12 2.75Z" />
<path d="M12 13.75C11.59 13.75 11.25 13.41 11.25 13V8C11.25 7.59 11.59 7.25 12 7.25C12.41 7.25 12.75 7.59 12.75 8V13C12.75 13.41 12.41 13.75 12 13.75Z" />
<path d="M12 16.9999C11.87 16.9999 11.74 16.9699 11.62 16.9199C11.5 16.8699 11.39 16.7999 11.29 16.7099C11.2 16.6099 11.13 16.5099 11.08 16.3799C11.03 16.2599 11 16.1299 11 15.9999C11 15.8699 11.03 15.7399 11.08 15.6199C11.13 15.4999 11.2 15.3899 11.29 15.2899C11.39 15.1999 11.5 15.1299 11.62 15.0799C11.86 14.9799 12.14 14.9799 12.38 15.0799C12.5 15.1299 12.61 15.1999 12.71 15.2899C12.8 15.3899 12.87 15.4999 12.92 15.6199C12.97 15.7399 13 15.8699 13 15.9999C13 16.1299 12.97 16.2599 12.92 16.3799C12.87 16.5099 12.8 16.6099 12.71 16.7099C12.61 16.7999 12.5 16.8699 12.38 16.9199C12.26 16.9699 12.13 16.9999 12 16.9999Z" />
</svg>

<?xml version="1.0" encoding="UTF-8"?>
<svg width="24" height="24" viewBox="0 0 24 24" xmlns="http://www.w3.org/2000/svg">
 <path d="m12 22.75c-5.93 0-10.75-4.82-10.75-10.75s4.82-10.75 10.75-10.75 10.75 4.82 10.75 10.75-4.82 10.75-10.75 10.75zm0-20c-5.1 0-9.25 4.15-9.25 9.25s4.15 9.25 9.25 9.25 9.25-4.15 9.25-9.25-4.15-9.25-9.25-9.25z"/>
 <path d="m12 13.75c-0.41 0-0.75-0.34-0.75-0.75v-5c0-0.41 0.34-0.75 0.75-0.75s0.75 0.34 0.75 0.75v5c0 0.41-0.34 0.75-0.75 0.75z"/>
 <path d="m12 17c-0.13 0-0.26-0.03-0.38-0.08s-0.23-0.12-0.33-0.21c-0.09-0.1-0.16-0.2-0.21-0.33-0.05-0.12-0.08-0.25-0.08-0.38s0.03-0.26 0.08-0.38 0.12-0.23 0.21-0.33c0.1-0.09 0.21-0.16 0.33-0.21 0.24-0.1 0.52-0.1 0.76 0 0.12 0.05 0.23 0.12 0.33 0.21 0.09 0.1 0.16 0.21 0.21 0.33s0.08 0.25 0.08 0.38-0.03 0.26-0.08 0.38c-0.05 0.13-0.12 0.23-0.21 0.33-0.1 0.09-0.21 0.16-0.33 0.21s-0.25 0.08-0.38 0.08z"/>
</svg>
